X:1
T:Title
%%score { ( 1 3 ) | ( 2 4 ) }
L:1/8
Q:1/4=117
M:6/4
K:Bb
V:1 treble nm="Grand Piano"
V:3 treble 
V:2 bass 
V:4 bass 
V:1
 [DF]2 [B,D]2 [DF]2 [Fd]2 [DB]2 [DF]2 | [DG]2 [DA]2 [DB]2 [EA]6 | F2 G2 F2 e2 d2 A2 | %3
w: Alice~Horton * * * * *|||
 [Ec]2 [DB]2 [EG]2 [DF]6 | [DF]2 [B,D]2 [DF]2 [Fd]2 [DB]2 [DF]2 | [EG]2 [GB]2 [Gc]2 [^Fd]6 | %6
w: |||
[M:13/8] [Fd]2 [=E_d]2 [F=d]2 [_Af]2 [Af]3 [Ge]2 | d2 d3 c2 [DB]-[DB]-[DB]- [DB]3 |[M:6/4] .F12 | %9
w: |||
 B2- [EB-]2 [EB]2 A6 | .c12 | .G6[K:bass][K:treble] z6 | .d12 | e6 z6 | %14
w: |||||
[M:13/8] G2 A2 G2 [DF]2 d3 [Ge]2[Q:1/4=115][Q:1/4=114][Q:1/4=112][Q:1/4=110][Q:1/4=108][Q:1/4=107][Q:1/4=105][Q:1/4=103][Q:1/4=102][Q:1/4=100][Q:1/4=98][Q:1/4=96][Q:1/4=95][Q:1/4=93][Q:1/4=91][Q:1/4=89] | %15
w: |
 d2 d3 c2 [DB]-[DB]-[DB]- [DB]3 |] %16
w: |
V:2
 [B,,B,]2 [B,,F,]2 [B,,B,]2 [B,,B,]2 [B,,B,]2 [B,,B,]2 | [B,,B,]2 [B,,F,]2 [B,,F,]2 [C,F,]6 | %2
 [F,E]2 [F,A,E]2 [F,A,E]2 [F,CF]2 [F,B,F]2 [F,CE]2 | [B,,B,]2 [B,,B,]2 [B,,B,]2 [B,,B,]6 | %4
 [B,,B,]2 [B,,F,]2 [B,,B,]2 [B,,B,]2 [B,,B,]2 [B,,B,]2 | [E,B,]2 [E,B,]2 [E,G,]2 [D,A,]6 | %6
[M:13/8] [B,,B,]2 [B,,B,]2 [B,,B,]2 [D,B,]2 [D,B,]3 [E,B,]2 | %7
 [F,B,F]2 [F,B,F]3 [F,A,E]2 [B,,B,]-[B,,B,]-[B,,B,]- [B,,B,]3 | %8
[M:6/4] [B,,B,]2 [B,,B,]2 [B,,B,]2 [B,,B,]2 [B,,F,B,]2 [B,,B,]2 | [C,F,]2 [C,F,]2 [C,F,]2 [F,CE]6 | %10
 [F,A,E]2 [F,A,]2 [F,A,]2 [F,A,]2 [F,A,E]2 [F,A,C]2 | [B,,=E,]2 B,,2 B,,2 z4 B,2 | %12
 [B,,B,]2 [B,,B,]2 [B,,B,]2 [B,,B,]2 [B,,B,]2 [B,,B,]2 | [E,B,][E,B,] [E,B,]2 [E,B,]2 [E,B,E]6 | %14
[M:13/8] [E,B,E]2 [E,CE]2 [B,E]2 [B,,B,]2 [B,F]3 [E,B,]2 | %15
 [F,B,F]2 [F,A,F]3 [F,A,E]2 [B,,B,]-[B,,B,]-[B,,B,]- [B,,B,]3 |] %16
V:3
 x12 | x12 | x12 | x12 | x12 | x12 |[M:13/8] x13 | x13 |[M:6/4] D2 D2 D2 D2 D2 [Fd]2 | .E6 z6 | %10
 z2 E2 E2 E2 G2 A2 | _D2[K:bass] [=E,D]2 [E,D]2[K:treble] .[F,=DF]6 | F2 F2 F2 F2 [_Ac]2 [Ad]2 | %13
 GG G2 G2 G6 |[M:13/8] x13 | x13 |] %16
V:4
 x12 | x12 | x12 | x12 | x12 | x12 |[M:13/8] x13 | x13 |[M:6/4] x12 | x12 | x12 | z6 B,,6 | x12 | %13
 x12 |[M:13/8] x13 | x13 |] %16

